X: 3426
T: Best Day Of My Life, The
R: jig
M: 6/8
K: Amajor
ABA cAd|eAE F2A|BAB cAE|FAF E2D|
CEA, CDE|FAB cea|ecA dBG|ABA A3:|
afe faf|ecB c2B|cAd eag|aec B3|
afe faf|ecB c2f|ecA dBG|ABA A3:|

